build/svg/cmd/32/cylinder.svg

<?xml version="1.0" encoding="UTF-8" standalone="no"?>
<svg
   xmlns:dc="http://purl.org/dc/elements/1.1/"
   xmlns:cc="http://creativecommons.org/ns#"
   xmlns:rdf="http://www.w3.org/1999/02/22-rdf-syntax-ns#"
   xmlns:svg="http://www.w3.org/2000/svg"
   xmlns="http://www.w3.org/2000/svg"
   xmlns:sodipodi="http://sodipodi.sourceforge.net/DTD/sodipodi-0.dtd"
   xmlns:inkscape="http://www.inkscape.org/namespaces/inkscape"
   height="32"
   viewBox="0 0 32 32"
   width="32"
   version="1.1"
   id="svg13"
   sodipodi:docname="cylinder.svg"
   inkscape:export-filename="/home/jupiter007/Libreoffice yaru theme fullcolor/build/cmd/32/cylinder.png"
   inkscape:export-xdpi="96"
   inkscape:export-ydpi="96"
   inkscape:version="0.92.5 (2060ec1f9f, 2020-04-08)">
  <metadata
     id="metadata19">
    <rdf:RDF>
      <cc:Work
         rdf:about="">
        <dc:format>image/svg+xml</dc:format>
        <dc:type
           rdf:resource="http://purl.org/dc/dcmitype/StillImage" />
      </cc:Work>
    </rdf:RDF>
  </metadata>
  <defs
     id="defs17" />
  <sodipodi:namedview
     pagecolor="#ffffff"
     bordercolor="#666666"
     borderopacity="1"
     objecttolerance="10"
     gridtolerance="10"
     guidetolerance="10"
     inkscape:pageopacity="0"
     inkscape:pageshadow="2"
     inkscape:window-width="1920"
     inkscape:window-height="1011"
     id="namedview15"
     showgrid="false"
     inkscape:zoom="14.75"
     inkscape:cx="7.5454936"
     inkscape:cy="14.90824"
     inkscape:window-x="0"
     inkscape:window-y="32"
     inkscape:window-maximized="1"
     inkscape:current-layer="svg13" />
  <linearGradient
     id="a"
     gradientUnits="userSpaceOnUse"
     x1="4"
     x2="16"
     y1="19"
     y2="19"
     gradientTransform="translate(-1e-6,-5e-5)">
    <stop
       offset="0"
       stop-color="#b3b3b3"
       id="stop2" />
    <stop
       offset="1"
       stop-color="#232629"
       id="stop4" />
  </linearGradient>
  <path
     style="opacity:0.6;fill:#000000;stroke:#000000;stroke-width:2;stroke-miterlimit:4;stroke-dasharray:none;stroke-linejoin:round"
     d="M 16 4 A 12 6 0 0 0 4 10 L 4 22 C 4 25.31365 9.372583 28 16 28 C 22.627417 28 28 25.31365 28 22 L 28 10 A 12 6 0 0 0 16 4 z M 27.947266 10.523438 C 27.930043 10.62286 27.901803 10.720383 27.875 10.818359 A 12 6 0 0 0 27.947266 10.523438 z M 4.0605469 10.601562 A 12 6 0 0 0 4.2050781 11.082031 C 4.1472226 10.923466 4.0929454 10.764214 4.0605469 10.601562 z M 27.787109 11.105469 C 27.744424 11.219875 27.690239 11.331336 27.634766 11.443359 A 12 6 0 0 0 27.787109 11.105469 z M 4.2402344 11.193359 A 12 6 0 0 0 4.5351562 11.773438 A 12 6 0 0 0 5.4628906 12.869141 C 5.0850483 12.523093 4.7721246 12.156546 4.5351562 11.773438 C 4.4177503 11.583627 4.3199372 11.390706 4.2402344 11.193359 z M 27.517578 11.671875 C 27.444291 11.798192 27.358681 11.922189 27.269531 12.044922 A 12 6 0 0 0 27.517578 11.671875 z M 27.136719 12.226562 C 27.040848 12.346327 26.932842 12.462317 26.822266 12.578125 A 12 6 0 0 0 27.136719 12.226562 z M 26.628906 12.779297 C 26.517958 12.885149 26.396421 12.98783 26.273438 13.089844 A 12 6 0 0 0 26.628906 12.779297 z M 5.5957031 12.980469 A 12 6 0 0 0 6.0820312 13.378906 C 5.9073293 13.25091 5.7505784 13.115314 5.5957031 12.980469 z M 26.035156 13.285156 C 25.90796 13.382097 25.770718 13.475434 25.632812 13.568359 A 12 6 0 0 0 26.035156 13.285156 z M 6.2773438 13.507812 A 12 6 0 0 0 6.7871094 13.841797 C 6.6074214 13.734199 6.4418482 13.621605 6.2773438 13.507812 z M 25.322266 13.775391 C 25.187856 13.858266 25.041335 13.934537 24.898438 14.013672 A 12 6 0 0 0 25.322266 13.775391 z M 7.171875 14.052734 A 12 6 0 0 0 7.5605469 14.261719 C 7.4252191 14.194727 7.3007352 14.122863 7.171875 14.052734 z M 24.544922 14.208984 C 24.408319 14.278311 24.262309 14.342249 24.119141 14.408203 A 12 6 0 0 0 24.544922 14.208984 z M 8.03125 14.476562 A 12 6 0 0 0 8.4570312 14.662109 C 8.3102492 14.602678 8.1721916 14.539328 8.03125 14.476562 z M 23.660156 14.617188 C 23.486293 14.689376 23.301083 14.754995 23.119141 14.822266 A 12 6 0 0 0 23.660156 14.617188 z M 8.8808594 14.820312 A 12 6 0 0 0 9.4082031 15.009766 C 9.2271397 14.950093 9.0548953 14.884668 8.8808594 14.820312 z M 22.753906 14.957031 C 22.462275 15.056544 22.160878 15.149728 21.851562 15.236328 A 12 6 0 0 0 22.753906 14.957031 z M 9.8535156 15.146484 A 12 6 0 0 0 10.443359 15.314453 C 10.241962 15.261712 10.047978 15.204676 9.8535156 15.146484 z M 21.748047 15.267578 C 21.053359 15.457471 20.316314 15.613537 19.546875 15.732422 C 19.167347 15.791062 18.779351 15.84106 18.384766 15.880859 A 12 6 0 0 0 19.546875 15.732422 A 12 6 0 0 0 21.748047 15.267578 z M 10.822266 15.40625 A 12 6 0 0 0 11.568359 15.572266 C 11.314433 15.521732 11.067317 15.465031 10.822266 15.40625 z M 11.869141 15.628906 A 12 6 0 0 0 12.666016 15.759766 C 12.395754 15.720713 12.131191 15.677022 11.869141 15.628906 z M 13.056641 15.810547 A 12 6 0 0 0 13.833984 15.898438 C 13.571041 15.874428 13.3133 15.842976 13.056641 15.810547 z M 14.277344 15.931641 A 12 6 0 0 0 14.980469 15.974609 C 14.743256 15.964605 14.510426 15.948445 14.277344 15.931641 z "
     id="path828" />
  <path
     style="opacity:1;fill:#ffffff"
     inkscape:connector-curvature="0"
     id="path7"
     d="m 15.999999,3.99995 a 12,6 0 0 0 -12,6 12,6 0 0 0 12,6 12,6 0 0 0 12,-6 12,6 0 0 0 -12,-6 z" />
  <path
     inkscape:connector-curvature="0"
     style="opacity:0.986928;fill:#b6b6b6;fill-opacity:1"
     id="path9"
     d="m 3.999999,9.99995 v 12 c 0,3.31365 5.372583,6 12,6 6.627417,0 12,-2.68635 12,-6 v -12 c 0,3.31365 -5.372583,6 -12,6 -6.627417,0 -12,-2.68635 -12,-6 z" />
</svg>

<svg xmlns="http://www.w3.org/2000/svg" height="32" width="32"><path d="M16 4a12 6 0 00-12 6v12c0 3.314 5.373 6 12 6s12-2.686 12-6V10a12 6 0 00-12-6zm11.947 6.523c-.017.1-.045.197-.072.295a12 6 0 00.072-.295zm-23.886.079a12 6 0 00.144.48 3.288 3.288 0 01-.144-.48zm23.726.503a3.626 3.626 0 01-.152.338 12 6 0 00.152-.338zm-23.547.088a12 6 0 00.295.58 12 6 0 00.928 1.096 5.246 5.246 0 01-.928-1.096 3.819 3.819 0 01-.295-.58zm23.278.479c-.074.126-.16.25-.248.373a12 6 0 00.248-.373zm-.381.555c-.096.12-.204.235-.315.351a12 6 0 00.315-.351zm-.508.552c-.111.106-.233.209-.356.31a12 6 0 00.356-.31zm-21.033.201a12 6 0 00.486.399 7.378 7.378 0 01-.486-.399zm20.44.305c-.128.097-.265.19-.403.283a12 6 0 00.402-.283zm-19.759.223a12 6 0 00.51.334 9.17 9.17 0 01-.51-.334zm19.045.267c-.134.083-.28.16-.424.239a12 6 0 00.424-.239zm-18.15.278a12 6 0 00.389.209c-.136-.067-.26-.14-.39-.21zm17.373.156c-.137.07-.283.133-.426.2a12 6 0 00.426-.2zm-16.514.268a12 6 0 00.426.185c-.147-.06-.285-.123-.426-.185zm15.63.14c-.175.072-.36.138-.542.205a12 6 0 00.541-.205zm-14.78.203a12 6 0 00.527.19c-.18-.06-.353-.125-.527-.19zm13.873.137c-.292.1-.593.193-.902.28a12 6 0 00.902-.28zm-12.9.19a12 6 0 00.59.167c-.202-.052-.396-.11-.59-.168zm11.894.12c-.695.19-1.432.347-2.201.465-.38.06-.768.11-1.162.149a12 6 0 001.162-.149 12 6 0 002.201-.464zm-10.926.14a12 6 0 00.746.165c-.254-.05-.5-.107-.746-.166zm1.047.222a12 6 0 00.797.13 21.16 21.16 0 01-.797-.13zm1.188.182a12 6 0 00.777.087c-.263-.024-.52-.055-.777-.087zm1.22.12a12 6 0 00.703.044c-.237-.01-.47-.027-.703-.043z" opacity=".6" stroke="#000" stroke-width="2" stroke-linejoin="round"/><path d="M16 4a12 6 0 00-12 6 12 6 0 0012 6 12 6 0 0012-6 12 6 0 00-12-6z" fill="#fff"/><path d="M4 10v12c0 3.314 5.373 6 12 6s12-2.686 12-6V10c0 3.314-5.373 6-12 6S4 13.314 4 10z" opacity=".987" fill="#b6b6b6"/></svg>
